X:6
T: Es geht nix ueber die Gemuetlichkeit, eicha, eicha
N: V0002B
O: Europa, Mitteleuropa, Deutschland, Ober - Franken, Toepen
R: Geselligkeits - Lied, Gemuetlichkeit
M: 2/4
L: 1/16
K: F
C2 | F2F2FFGF | E2D2D2B2 | E4z2A2 | F4z2
CC | F2F2FFGF | E2D2D2B2 | E4z2A2 | F4z2

